X: 2
T: Father Kelly's Reel
T: The Rossmore Jetty
%T: Father Kelley's Reel
C: Father PJ (Patrick Joseph) Kelly (1925/9/16-2006)
O: Ireland
Z: John Chambers <jc:trillian.mit.edu>
R: reel
M: C|
L: 1/8
K: G
GA | "G"B2GB "C"AGEG | "D7"DGGF "G"GABd | "Am"c2AB cBAG | "D7"FGAG FD[GD]A |
y4 | "G"B2GB "C"AGEG | "D7"DGGF "G"GABd | "C"cdef "(G)"gedc | "D7"BGAF  "G"G2 :|
|: Bc | "G"d2Bd gdBd | d2Bd gdBd | "Am"e2ce agfe | "D7"defg agfe |
   y4 | "G"d2Bd gdBd | d2Bd gdBd | "Am"c2{B}Ac "G"B2{A}GB | "D7"A2{G}FA "G"G2 :|

%%sep 1 1 500

